X: 2263
T: Babes In The Wood
R: polka
M: 2/4
K: Dmajor
|:A/B/A/G/ FA|de fe/f/|ga/g/ fe|df AF/G/|
A/B/A/G/ FA|de fe/f/|ga/g/ fe|1 d2 d2:|2 d2 cd||
|:e>f ed|ce a2|e>f ef|ge cA|
e>f ed|ce a2|a/b/a/g/ fe|1 d2 cd:|2 d2 d2||

